icon/pk/zoom.svg

<svg viewBox="0 0 48 48" fill="none" xmlns="http://www.w3.org/2000/svg" height="1em" width="1em">
  <path d="M20 43C15.2742 41.2327 11.3325 35.1851 9.35971 31.6428C8.50794 30.1134 8.95664 28.2347 10.3236 27.1411C11.8473 25.9222 14.0438 26.0438 15.4236 27.4236L17 29V20.5C17 19.1193 18.1193 18 19.5 18C20.8807 18 22 19.1193 22 20.5V16.5C22 15.1193 23.1193 14 24.5 14C25.8807 14 27 15.1193 27 16.5V24.5C27 23.1193 28.1193 22 29.5 22C30.8807 22 32 23.1193 32 24.5V27.5C32 26.1193 33.1193 25 34.5 25C35.8807 25 37 26.1193 37 27.5V35.368C37 36.4383 36.7354 37.496 36.1185 38.3707C35.0949 39.8219 33.255 42.0336 31 43C27.5 44.5 24.3701 44.6343 20 43Z" fill="#2F88FF" stroke="black" stroke-width="4" stroke-linecap="round" stroke-linejoin="round"/>
  <path d="M13 8L35 8" stroke="black" stroke-width="4" stroke-linecap="round" stroke-linejoin="round"/>
  <path d="M17.0003 12L13 8L17 4" stroke="black" stroke-width="4" stroke-linecap="round" stroke-linejoin="round"/>
  <path d="M31 4L35 8L31 12" stroke="black" stroke-width="4" stroke-linecap="round" stroke-linejoin="round"/>
</svg>

<svg width="48" height="48" fill="none" xmlns="http://www.w3.org/2000/svg"><path d="M20 43c-4.726-1.767-8.668-7.815-10.64-11.357-.852-1.53-.403-3.408.964-4.502a3.83 3.83 0 0 1 5.1.283L17 29v-8.5a2.5 2.5 0 0 1 5 0v-4a2.5 2.5 0 0 1 5 0v8a2.5 2.5 0 0 1 5 0v3a2.5 2.5 0 0 1 5 0v7.868c0 1.07-.265 2.128-.882 3.003C35.095 39.82 33.255 42.034 31 43c-3.5 1.5-6.63 1.634-11 0Z" fill="#2F88FF" stroke="#000" stroke-width="4" stroke-linecap="round" stroke-linejoin="round"/><path d="M13 8h22M17 12l-4-4 4-4M31 4l4 4-4 4" stroke="#000" stroke-width="4" stroke-linecap="round" stroke-linejoin="round"/></svg>
